dist/img/picture/brands/daken.svg

<svg width="60" height="45" viewBox="0 0 60 45" fill="none" xmlns="http://www.w3.org/2000/svg">
<path d="M22.8866 0.053051C20.5075 0.323147 18.728 1.65916 18.0619 3.68006C17.843 4.3553 17.7764 4.82797 17.7764 5.69131C17.7811 7.09003 17.9334 7.69774 18.904 10.1527C20.2934 13.664 21.1356 16.3022 22.0777 20.0884C22.6915 22.5675 23.1245 23.6913 24.0666 25.2395C24.8517 26.537 26.0365 27.8151 27.1499 28.5627C27.5638 28.8424 28.3109 29.2235 28.7867 29.3971C30.1047 29.8746 31.6653 29.9325 33.1404 29.5611C33.3688 29.5032 34.8485 28.881 36.8755 27.9984C40.839 26.2669 41.9619 25.7894 43.7748 25.0466C45.2546 24.4389 45.5448 24.2894 46.1824 23.7878C47.2435 22.9534 48.019 21.8344 48.4282 20.5466C48.6423 19.8666 48.728 19.3505 48.7565 18.545C48.7994 17.4405 48.6614 16.4759 48.3093 15.3617C48.1142 14.754 48.0048 14.5225 46.9532 12.5257C45.9635 10.6495 45.1071 8.92282 44.7597 8.10289C43.9889 6.29421 43.5464 5.57556 42.609 4.58681C40.7153 2.59485 38.046 1.42282 34.1967 0.892279C32.1697 0.617359 29.2101 0.313501 27.1689 0.17363C24.709 -3.8147e-06 23.6098 -0.0289421 22.8866 0.053051ZM34.5916 5.55144C36.9231 5.77813 39.1927 6.75241 40.544 8.11254C40.9722 8.5418 41.4909 9.27974 41.7002 9.74276C42.3569 11.2331 42.6043 11.7781 43.2752 13.2395C43.7653 14.2958 44.0936 15.0723 44.1554 15.3135C44.5741 16.9534 44.2649 18.1929 43.161 19.2588C42.571 19.828 42.1142 20.1077 41.2292 20.4405C40.1158 20.8601 39.2213 21.1592 38.4933 21.3521C37.927 21.5016 37.7795 21.5209 37.2561 21.5257C36.8041 21.5257 36.5615 21.5016 36.2427 21.4244C34.3727 20.9614 32.8834 19.2347 32.046 16.5434C31.8985 16.0804 31.3561 14.3875 30.8327 12.7813C30.3093 11.1752 29.862 9.72347 29.8335 9.54984C29.6479 8.32475 29.9667 7.15273 30.6804 6.42443C31.5083 5.59003 32.5551 5.35369 34.5916 5.55144Z" fill="#EE3324"/>
<path d="M17.096 32.8215C16.5155 32.9806 16.0254 33.3713 15.7875 33.8681C15.7209 34.008 14.6741 36.5112 13.4655 39.4292C12.257 42.3472 11.2578 44.7491 11.2435 44.7732C11.234 44.7925 11.9572 44.8022 12.8517 44.7974L14.479 44.7829L14.8835 43.7314L15.2879 42.6848L17.7431 42.6945L20.1983 42.7089L20.6265 43.7556L21.0548 44.807H22.663C23.5433 44.807 24.2665 44.7925 24.2665 44.7781C24.2665 44.725 19.8795 34.172 19.7368 33.8874C19.4513 33.3134 18.9707 32.9276 18.3759 32.8022C18.0334 32.7298 17.4005 32.7395 17.096 32.8215ZM18.4806 38.4453C18.8898 39.4437 19.2229 40.2829 19.2229 40.3167C19.2229 40.3552 18.8184 40.3697 17.7241 40.3697C16.9009 40.3697 16.2253 40.3552 16.2253 40.3359C16.2253 40.2395 17.6812 36.5691 17.705 36.598C17.7241 36.6173 18.0714 37.4469 18.4806 38.4453Z" fill="#1F2120"/>
<path d="M49.2467 32.9324C49.1039 32.9807 48.9326 33.0482 48.8708 33.0819C48.6567 33.2025 48.3331 33.5401 48.2094 33.7861L48.0809 34.0273L48.0666 39.4147L48.0571 44.807H49.5084H50.9596L50.9691 41.0112L50.9834 37.2202L53.6337 40.7893C55.0896 42.7524 56.3839 44.4501 56.5028 44.5562C56.8739 44.8842 57.1547 44.971 57.8827 44.9758C58.4061 44.9758 58.5488 44.9614 58.8105 44.8649C59.1816 44.7347 59.5195 44.4935 59.7145 44.2186C60.0095 43.8038 60 44.0498 60 38.2379V32.9421L58.5393 32.9517L57.0738 32.9662L57.05 36.8392L57.0262 40.7122L54.3854 37.1768C52.9342 35.2331 51.64 33.5353 51.5068 33.4051C51.3783 33.2749 51.1309 33.1012 50.9596 33.0192C50.6741 32.8842 50.6027 32.8697 50.0793 32.8601C49.6321 32.8504 49.4513 32.8649 49.2467 32.9324Z" fill="#1F2120"/>
<path d="M2.03173 32.9951C0.975429 33.106 0.409212 33.4485 0.137999 34.1286L0.0238037 34.4131V38.8745V43.3359L0.133241 43.6109C0.290259 44.0064 0.590021 44.3247 0.984946 44.508C1.46552 44.7298 1.99367 44.807 3.08804 44.807C5.01508 44.807 6.49486 44.4983 7.9223 43.799C9.76845 42.8922 10.9865 41.5273 11.4005 39.9115C11.5099 39.4726 11.5194 39.3665 11.5004 38.7298C11.4814 38.2089 11.4528 37.9388 11.3767 37.6736C10.7248 35.4115 8.19827 33.5594 5.16258 33.1157C4.13959 32.9662 2.78828 32.9131 2.03173 32.9951ZM4.75338 35.4501C6.59954 35.8311 8.0127 36.9597 8.30771 38.2909C8.40763 38.7395 8.37432 39.352 8.22682 39.7861C7.84617 40.9099 6.64236 41.8504 5.07694 42.2507C4.62016 42.3665 3.67805 42.4919 3.26409 42.4919H3.14038V38.889V35.2909L3.70184 35.3199C4.01112 35.3343 4.48217 35.3922 4.75338 35.4501Z" fill="#1F2120"/>
<path d="M25.6463 38.8745V44.807H27.2165H28.7867V42.3954C28.7867 41.0691 28.8009 39.9839 28.8247 39.9887C28.8438 39.9887 29.8668 41.0739 31.0944 42.4003L33.3307 44.807H35.3005H37.2657L34.3251 41.7877C32.7026 40.1237 31.3846 38.7395 31.3846 38.7057C31.3894 38.672 32.5266 37.3745 33.9207 35.8215C35.3101 34.2636 36.4473 32.9806 36.4473 32.9662C36.4473 32.9276 32.8596 32.9372 32.8073 32.9806C32.7787 32.9999 31.8652 34.0321 30.7851 35.2813L28.8105 37.5433L28.7962 35.2427L28.7867 32.9421H27.2165H25.6463V38.8745Z" fill="#1F2120"/>
<path d="M39.7923 32.9951C38.893 33.1012 38.1269 33.5642 37.9366 34.1189C37.8557 34.3456 37.851 34.688 37.851 38.8504C37.851 43.1285 37.8557 43.3504 37.9414 43.6012C38.1697 44.2765 38.6218 44.6141 39.4973 44.754C39.6828 44.7877 40.9437 44.807 42.7661 44.807H45.7257V43.6495V42.4919H43.3704H41.0151V41.1896V39.8874L43.1467 39.8777L45.2736 39.8633L45.2879 38.6913L45.2974 37.524H43.1563H41.0151V36.4147V35.3054H43.3704H45.7257L45.7161 34.1334L45.7019 32.9662L42.9184 32.9613C41.3862 32.9565 39.9826 32.971 39.7923 32.9951Z" fill="#1F2120"/>
</svg>

<svg width="60" height="45" viewBox="0 0 60 45" fill="none" xmlns="http://www.w3.org/2000/svg"><path d="M22.887.053c-2.38.27-4.159 1.606-4.825 3.627-.219.675-.286 1.148-.286 2.011.005 1.399.157 2.007 1.128 4.462 1.39 3.511 2.232 6.15 3.174 9.935.614 2.48 1.047 3.603 1.989 5.151.785 1.298 1.97 2.576 3.083 3.324.414.28 1.16.66 1.637.834 1.318.478 2.878.536 4.353.164.229-.058 1.709-.68 3.736-1.563 3.963-1.731 5.086-2.209 6.899-2.951 1.48-.608 1.77-.758 2.407-1.26a6.676 6.676 0 002.246-3.24c.214-.68.3-1.197.329-2.002.042-1.105-.096-2.07-.448-3.183-.195-.608-.304-.84-1.356-2.836-.99-1.877-1.846-3.603-2.193-4.423-.771-1.809-1.214-2.527-2.151-3.516-1.894-1.992-4.563-3.164-8.412-3.695a122.532 122.532 0 00-7.028-.718c-2.46-.174-3.56-.203-4.282-.12zm11.705 5.498c2.331.227 4.6 1.201 5.952 2.562.428.429.947 1.167 1.156 1.63.657 1.49.904 2.035 1.575 3.496.49 1.057.819 1.833.88 2.074.42 1.64.11 2.88-.994 3.946-.59.569-1.047.849-1.932 1.181-1.113.42-2.008.72-2.736.912-.566.15-.714.169-1.237.174-.452 0-.694-.024-1.013-.102-1.87-.463-3.36-2.19-4.197-4.88-.148-.464-.69-2.157-1.213-3.763-.524-1.606-.971-3.058-1-3.231-.185-1.225.134-2.397.847-3.126.828-.834 1.875-1.07 3.912-.873z" fill="#EE3324"/><path d="M17.096 32.822c-.58.159-1.07.55-1.309 1.046a665.54 665.54 0 00-2.322 5.561 980.216 980.216 0 01-2.222 5.344c-.009.02.714.03 1.609.024l1.627-.014.405-1.052.404-1.046 2.455.01 2.455.014.428 1.047.429 1.051h1.608c.88 0 1.604-.015 1.604-.029 0-.053-4.387-10.606-4.53-10.89-.286-.575-.766-.96-1.361-1.086-.343-.072-.976-.063-1.28.02zm1.385 5.623c.409.999.742 1.838.742 1.872 0 .038-.405.053-1.499.053-.823 0-1.499-.015-1.499-.034 0-.096 1.456-3.767 1.48-3.738.02.02.366.849.776 1.847zm30.766-5.513a3.261 3.261 0 00-.376.15c-.214.12-.538.458-.662.704l-.128.241-.014 5.388-.01 5.392h2.903l.01-3.796.013-3.79 2.65 3.568c1.457 1.963 2.75 3.661 2.87 3.767.37.328.652.415 1.38.42.523 0 .666-.015.927-.111.372-.13.71-.372.904-.646.296-.415.286-.17.286-5.981v-5.296l-1.46.01-1.466.014-.024 3.873-.024 3.873-2.64-3.535c-1.452-1.944-2.746-3.642-2.88-3.772a2.345 2.345 0 00-.546-.386c-.286-.135-.357-.15-.88-.159-.448-.01-.629.005-.833.072zm-47.215.063C.975 33.106.409 33.45.138 34.13l-.114.284v8.922l.11.276c.156.395.456.714.85.897.482.222 1.01.299 2.104.299 1.927 0 3.407-.309 4.834-1.008 1.846-.907 3.064-2.272 3.478-3.888.11-.438.12-.544.1-1.181-.019-.521-.047-.791-.123-1.056-.652-2.263-3.179-4.115-6.214-4.558-1.023-.15-2.375-.203-3.131-.12zm2.721 2.455c1.847.381 3.26 1.51 3.555 2.84.1.45.066 1.062-.081 1.496-.38 1.124-1.585 2.064-3.15 2.465-.457.116-1.399.24-1.813.24H3.14v-7.199l.562.029c.31.014.78.072 1.051.13zm20.893 3.424v5.933h3.14v-2.412c0-1.326.015-2.411.039-2.406.019 0 1.042 1.085 2.27 2.411l2.236 2.407h3.935l-2.94-3.02c-1.623-1.663-2.941-3.047-2.941-3.081.004-.034 1.142-1.332 2.536-2.885 1.39-1.557 2.526-2.84 2.526-2.855 0-.038-3.587-.029-3.64.015-.028.019-.942 1.051-2.022 2.3l-1.974 2.262-.015-2.3-.01-2.3h-3.14v5.931zm14.146-5.879c-.899.106-1.665.57-1.855 1.124-.081.227-.086.569-.086 4.731 0 4.279.005 4.5.09 4.751.229.675.68 1.013 1.556 1.153.186.034 1.447.053 3.27.053h2.959v-2.315h-4.711v-2.605l2.132-.01 2.127-.014.014-1.172.01-1.167h-4.282v-2.219h4.71l-.01-1.172-.014-1.167-2.784-.005c-1.532-.005-2.935.01-3.126.034z" fill="#1F2120"/></svg>
